X: 2
T: The Arran Boat
R: jig
M: 6/8
L: 1/8
K: Edor
|: E6 | B3 c d2 | A3 F D2 | A3 F D2 | E6 | B3 c d2 | A F3 D2 |1 E6 :|2 E4 B2 |||: e4 fe | g3 f e2 | d3 B G2 | A3 F D2 | e4 f e | g3 f e2 | ^d B3 d2 | e6 :|2 E6 | B3 c d2 | A F3 D2 | E6 ||


Tune 986	Setting 14187

